icons/objectstore-data-store-32.svg

<?xml version="1.0" encoding="UTF-8"?><svg id="icons" xmlns="http://www.w3.org/2000/svg" viewBox="0 0 32 32"><defs><style>.cls-1{fill:none;}.cls-1,.cls-2{stroke-width:0px;}</style></defs><rect class="cls-1" width="32" height="32"/><path class="cls-2" d="M27,20.95758v-4.80426l-4.5-2.59668-4.5,2.59668v4.80426l-4,2.30902v5.39844l4,2.30817v.02679h.04645l.45355.26172.45355-.26172h.04645v-.02679l3.5-2.01965,3.5,2.01965v.02679h.04645l.45355.26172.45355-.26172h.04645v-.02679l4-2.30817v-5.39844l-4-2.30902ZM26.5,25.59668l-3.25317-1.87842,3.26801-1.88647,3.25275,1.87817-3.26758,1.88672ZM26,20.95758l-3,1.73175v-3.33929l3-1.73175v3.33929ZM22.5,14.71094l3.26758,1.88672-3.26758,1.88672-3.26758-1.88672,3.26758-1.88672ZM22,19.35004v3.33929l-3-1.73175v-3.33929l3,1.73175ZM18.48517,21.83179l3.26801,1.88647-3.25317,1.87842-3.26758-1.88672,3.25275-1.87817ZM15,28.08691v-3.35632l3,1.73175v3.35645l-3-1.73187ZM19,26.46234l3-1.73175v3.35632l-3,1.73187v-3.35645ZM23,28.08691v-3.35632l3,1.73175v3.35645l-3-1.73187ZM30,28.08691l-3,1.73187v-3.35645l3-1.73175v3.35632ZM26.45166,14.68243l1.04834.60516c.26306.15192.43274.41718.47949.7124h.02051V7c0-2.5332-6.44043-4.00043-12.5-4.00043S3.009,4.4668,3.009,7c0,.03284-.009,16.48926-.009,16.48926,0,2.43115,4.79364,3.96875,10,4.34619v-.84857c-5.40997-.4151-9-2.12024-9-3.49762v-7.98645c2.03448,1.58099,6.87335,2.44,11.5,2.44.49884,0,1-.01196,1.5-.03174v-.87469c-.48663.01947-.98389.03241-1.5.03241-7.125,0-11.5-1.94965-11.5-3.24359v-5.22882c2.03448,1.50452,6.87335,2.40399,11.5,2.40399s9.46552-.89948,11.5-2.40399v5.22882c0,.26556-.19385.55896-.54834.85724ZM15.5,10.08136c-7.125,0-11.5-1.87042-11.5-3.08136s4.375-3.08142,11.5-3.08142,11.5,1.87048,11.5,3.08142-4.375,3.08136-11.5,3.08136Z"/></svg>

<svg xmlns="http://www.w3.org/2000/svg" viewBox="0 0 32 32"><path stroke-width="0" fill="none" d="M0 0h32v32H0z"/><path d="M27 20.958v-4.805l-4.5-2.596-4.5 2.596v4.805l-4 2.309v5.398l4 2.308V31h.046l.454.262.454-.262H19v-.027l3.5-2.02 3.5 2.02V31h.046l.454.262.454-.262H27v-.027l4-2.308v-5.398l-4-2.31zm-.5 4.639l-3.253-1.879 3.268-1.886 3.253 1.878-3.268 1.887zm-.5-4.64l-3 1.732V19.35l3-1.732v3.34zm-3.5-6.246l3.268 1.887-3.268 1.886-3.268-1.886L22.5 14.71zM22 19.35v3.34l-3-1.732v-3.34l3 1.732zm-3.515 2.482l3.268 1.886-3.253 1.879-3.268-1.887 3.253-1.878zM15 28.087V24.73l3 1.731v3.357l-3-1.732zm4-1.625l3-1.731v3.356l-3 1.732v-3.357zm4 1.625V24.73l3 1.731v3.357l-3-1.732zm7 0l-3 1.732v-3.357l3-1.731v3.356zm-3.548-13.405l1.048.606a.996.996 0 0 1 .48.712H28V7c0-2.533-6.44-4-12.5-4S3.009 4.467 3.009 7L3 23.49c0 2.43 4.794 3.968 10 4.345v-.848c-5.41-.415-9-2.12-9-3.498v-7.986c2.034 1.58 6.873 2.44 11.5 2.44.499 0 1-.012 1.5-.032v-.875c-.487.02-.984.033-1.5.033-7.125 0-11.5-1.95-11.5-3.244V8.596C6.034 10.101 10.873 11 15.5 11s9.466-.9 11.5-2.404v5.23c0 .265-.194.558-.548.856zm-10.952-4.6C8.375 10.081 4 8.21 4 7s4.375-3.081 11.5-3.081S27 5.789 27 7s-4.375 3.081-11.5 3.081z" stroke-width="0"/></svg>
